;FLAVOR:Marlin
;TIME:1231
;Filament used: 0.56499m
;Layer height: 0.1
;Generated with Cura_SteamEngine 3.0.3
M190 S60
M104 S210
M109 S210
M82 ; absolute extrusion mode
G28 ;Home all axes
G1 Z0.2 F1200 ;Raise nozzle
G92 E0 ;reset extrusion distance
G1 X100 Y0 E12 F600 ;purge nozzle
G92 E0 ;reset extrusion distance
;LAYER_COUNT:83
;LAYER:0
M107
G0 F3600 X49.247 Y41.99 Z0.3
;TYPE:WALL-INNER
G1 F1770 X70.55 Y41.99 E1.06281
G1 X70.75 Y41.99 E1.07279
G1 X70.75 Y42.19 E1.07925
G1 X70.748 Y58.03 E1.86951
G1 X49.247 Y58.03 E2.9422
G1 X49.247 Y41.99 E3.74244
G0 F3600 X49.317 Y42.06
G0 X70.65 Y42.389
G0 X71.153 Y42.39
;TYPE:WALL-OUTER
G1 F1770 X71.148 Y58.43 E4.54268
G1 X48.847 Y58.43 E5.65528
G1 X48.847 Y41.59 E6.49543
G1 X71.148 Y41.59 E7.60803
G1 X71.153 Y42.39 E7.64794
G0 F3600 X71.153 Y42.59
G0 X70.65 Y42.589
G0 X70.35 Y42.39
;TYPE:WALL-INNER
G1 F1770 X70.348 Y57.63 E8.40827
G1 X49.647 Y57.63 E9.44105
G1 X49.647 Y42.39 E10.20137
G1 X70.35 Y42.39 E11.23425
G0 F3600 X70.169 Y43.016
;TYPE:SKIN
G1 F1770 X69.722 Y42.569 E11.26579
G0 F3600 X69.157 Y42.569
G1 F1770 X70.169 Y43.582 E11.33723
G1 X70.239 Y43.652
G0 F3600 X70.169 Y44.148
G1 F1770 X68.591 Y42.569 E11.4486
G1 X68.521 Y42.499
G0 F3600 X68.025 Y42.569
G1 F1770 X70.169 Y44.713 E11.59987
G1 X70.239 Y44.783
G0 F3600 X70.169 Y45.279
G1 F1770 X67.46 Y42.569 E11.79104
G1 X67.39 Y42.499
G0 F3600 X66.894 Y42.569
G1 F1770 X70.169 Y45.845 E12.02214
G1 X70.239 Y45.915
G0 F3600 X70.169 Y46.41
G1 F1770 X66.328 Y42.569 E12.29315
G1 X66.258 Y42.499
G0 F3600 X65.763 Y42.569
G1 F1770 X70.169 Y46.975 E12.60401
G1 X70.239 Y47.045
G0 F3600 X70.169 Y47.541
G1 F1770 X65.197 Y42.569 E12.95482
G1 X65.127 Y42.499
G0 F3600 X64.631 Y42.569
G1 F1770 X70.169 Y48.107 E13.34555
G1 X70.239 Y48.177
G0 F3600 X70.169 Y48.672
G1 F1770 X64.065 Y42.569 E13.77619
G1 X63.995 Y42.499
G0 F3600 X63.5 Y42.569
G1 F1770 X70.169 Y49.238 E14.24672
G1 X70.239 Y49.308
G0 F3600 X70.169 Y49.804
G1 F1770 X62.934 Y42.569 E14.75719
G1 X62.864 Y42.499
G0 F3600 X62.368 Y42.569
G1 F1770 X70.168 Y50.369 E15.30752
G1 X70.238 Y50.439
G0 F3600 X70.168 Y50.935
G1 F1770 X61.803 Y42.569 E15.89775
G1 X61.733 Y42.499
G0 F3600 X61.237 Y42.569
G1 F1770 X70.168 Y51.5 E16.52788
G1 X70.238 Y51.57
G0 F3600 X70.168 Y52.066
G1 F1770 X60.671 Y42.569 E17.19795
G1 X60.601 Y42.499
G0 F3600 X60.106 Y42.569
G1 F1770 X70.168 Y52.632 E17.90791
G1 X70.238 Y52.702
G0 F3600 X70.168 Y53.197
G1 F1770 X59.54 Y42.569 E18.65777
G1 X59.47 Y42.499
G0 F3600 X58.974 Y42.569
G1 F1770 X70.167 Y53.762 E19.4475
G1 X70.237 Y53.832
G0 F3600 X70.167 Y54.328
G1 F1770 X58.409 Y42.569 E20.27713
G1 X58.339 Y42.499
G0 F3600 X57.843 Y42.569
G1 F1770 X70.167 Y54.894 E21.14669
G1 X70.237 Y54.964
G0 F3600 X70.167 Y55.459
G1 F1770 X57.277 Y42.569 E22.05614
G1 X57.207 Y42.499
G0 F3600 X56.712 Y42.569
G1 F1770 X70.167 Y56.025 E23.0055
G1 X70.237 Y56.095
G0 F3600 X70.167 Y56.591
G1 F1770 X56.146 Y42.569 E23.9948
G1 X56.076 Y42.499
G0 F3600 X55.58 Y42.569
G1 F1770 X70.167 Y57.156 E25.02399
G1 X70.237 Y57.226
G0 F3600 X69.894 Y57.449
G1 F1770 X55.015 Y42.569 E26.07382
G1 X54.945 Y42.499
G0 F3600 X54.449 Y42.569
G1 F1770 X69.328 Y57.449 E27.12365
G1 X69.398 Y57.519
G0 F3600 X68.763 Y57.449
G1 F1770 X53.883 Y42.569 E28.17351
G1 X53.813 Y42.499
G0 F3600 X53.317 Y42.569
G1 F1770 X68.197 Y57.449 E29.22337
G1 X68.267 Y57.519
G0 F3600 X67.631 Y57.449
G1 F1770 X52.752 Y42.569 E30.2732
G1 X52.682 Y42.499
G0 F3600 X52.186 Y42.569
G1 F1770 X67.066 Y57.449 E31.32307
G1 X67.136 Y57.519
G0 F3600 X66.5 Y57.449
G1 F1770 X51.62 Y42.569 E32.37293
G1 X51.55 Y42.499
G0 F3600 X51.055 Y42.569
G1 F1770 X65.934 Y57.449 E33.42276
G1 X66.004 Y57.519
G0 F3600 X65.369 Y57.449
G1 F1770 X50.489 Y42.569 E34.47263
G1 X50.419 Y42.499
G0 F3600 X49.923 Y42.569
G1 F1770 X64.803 Y57.449 E35.52249
G1 X64.873 Y57.519
G0 F3600 X64.237 Y57.449
G1 F1770 X49.826 Y43.038 E36.53926
G1 X49.756 Y42.968
G0 F3600 X49.826 Y43.603
G1 F1770 X63.672 Y57.449 E37.51617
G1 X63.742 Y57.519
G0 F3600 X63.106 Y57.449
G1 F1770 X49.826 Y44.169 E38.45315
G1 X49.756 Y44.099
G0 F3600 X49.826 Y44.735
G1 F1770 X62.54 Y57.449 E39.35019
G1 X62.61 Y57.519
G0 F3600 X61.975 Y57.449
G1 F1770 X49.826 Y45.3 E40.20737
G1 X49.756 Y45.23
G0 F3600 X49.826 Y45.866
G1 F1770 X61.409 Y57.449 E41.02461
G1 X61.479 Y57.519
G0 F3600 X60.843 Y57.449
G1 F1770 X49.826 Y46.432 E41.80192
G1 X49.756 Y46.362
G0 F3600 X49.826 Y46.997
G1 F1770 X60.278 Y57.449 E42.53937
G1 X60.348 Y57.519
G0 F3600 X59.712 Y57.449
G1 F1770 X49.826 Y47.563 E43.23688
G1 X49.756 Y47.493
G0 F3600 X49.826 Y48.129
G1 F1770 X59.146 Y57.449 E43.89445
G1 X59.216 Y57.519
G0 F3600 X58.58 Y57.449
G1 F1770 X49.826 Y48.694 E44.51213
G1 X49.756 Y48.624
G0 F3600 X49.826 Y49.26
G1 F1770 X58.015 Y57.449 E45.08991
G1 X58.085 Y57.519
G0 F3600 X57.449 Y57.449
G1 F1770 X49.826 Y49.826 E45.62775
G1 X49.756 Y49.756
G0 F3600 X49.826 Y50.391
G1 F1770 X56.883 Y57.449 E46.1257
G1 X56.953 Y57.519
G0 F3600 X56.318 Y57.449
G1 F1770 X49.826 Y50.957 E46.58374
G1 X49.756 Y50.887
G0 F3600 X49.826 Y51.523
G1 F1770 X55.752 Y57.449 E47.00185
G1 X55.822 Y57.519
G0 F3600 X55.186 Y57.449
G1 F1770 X49.826 Y52.089 E47.38003
G1 X49.756 Y52.019
G0 F3600 X49.826 Y52.654
G1 F1770 X54.621 Y57.449 E47.71834
G1 X54.691 Y57.519
G0 F3600 X54.055 Y57.449
G1 F1770 X49.826 Y53.22 E48.01672
G1 X49.756 Y53.15
G0 F3600 X49.826 Y53.786
G1 F1770 X53.489 Y57.449 E48.27517
G1 X53.559 Y57.519
G0 F3600 X52.924 Y57.449
G1 F1770 X49.826 Y54.351 E48.49375
G1 X49.756 Y54.281
G0 F3600 X49.826 Y54.917
G1 F1770 X52.358 Y57.449 E48.67239
G1 X52.428 Y57.519
G0 F3600 X51.792 Y57.449
G1 F1770 X49.826 Y55.483 E48.81111
G1 X49.756 Y55.413
G0 F3600 X49.826 Y56.048
G1 F1770 X51.227 Y57.449 E48.90995
G1 X51.297 Y57.519
G0 F3600 X50.661 Y57.449
G1 F1770 X49.826 Y56.614 E48.96887
G1 X49.756 Y56.544
G0 F3600 X49.826 Y57.18
G1 F1770 X50.095 Y57.449 E48.98785
G1 F1500 E42.48785
G0 F3600 X49.317 Y58.01
G0 X49.317 Y59.295
G0 X49.317 Y60.745
G0 X49.317 Y62.03
G0 X49.317 Y62.08
G0 X49.247 Y62.01
;TYPE:WALL-INNER
G1 F1500 E48.98785
G1 F1770 X70.747 Y62.01 E50.06049
G1 X70.747 Y78.01 E50.85873
G1 X49.247 Y78.01 E51.93137
G1 X49.247 Y62.01 E52.72961
G0 F3600 X49.317 Y62.08
G0 X51.085 Y65.014
G0 X51.104 Y65.111
G1 F1770 X50.922 Y65.168 E52.73913
G1 X50.754 Y65.256 E52.74859
G1 X50.606 Y65.379 E52.75819
G1 X50.483 Y65.527 E52.76779
G1 X50.395 Y65.695 E52.77725
G1 X50.338 Y65.877 E52.78677
G1 X50.319 Y66.07 E52.79644
G1 X50.338 Y66.263 E52.80612
G1 X50.395 Y66.445 E52.81563
G1 X50.483 Y66.613 E52.82509
G1 X50.606 Y66.761 E52.8347
G1 X50.754 Y66.884 E52.8443
G1 X50.922 Y66.972 E52.85376
G1 X51.104 Y67.029 E52.86327
G1 X51.297 Y67.048 E52.87295
G1 X51.49 Y67.029 E52.88262
G1 X51.672 Y66.972 E52.89214
G1 X51.84 Y66.884 E52.9016
G1 X51.988 Y66.761 E52.9112
G1 X52.111 Y66.613 E52.9208
G1 X52.199 Y66.445 E52.93026
G1 X52.256 Y66.263 E52.93978
G1 X52.275 Y66.07 E52.94945
G1 X52.256 Y65.877 E52.95913
G1 X52.199 Y65.695 E52.96864
G1 X52.111 Y65.527 E52.97811
G1 X51.988 Y65.379 E52.98771
G1 X51.84 Y65.256 E52.99731
G1 X51.672 Y65.168 E53.00677
G1 X51.49 Y65.111 E53.01628
G1 X51.297 Y65.092 E53.02596
G1 X51.104 Y65.111 E53.03564
G0 F3600 X51.184 Y65.505
;TYPE:WALL-OUTER
G1 F1770 X51.076 Y65.539 E53.04128
G1 X50.977 Y65.591 E53.04686
G1 X50.89 Y65.663 E53.0525
G1 X50.818 Y65.75 E53.05813
G1 X50.766 Y65.849 E53.06371
G1 X50.732 Y65.957 E53.06936
G1 X50.721 Y66.07 E53.07502
G1 X50.732 Y66.183 E53.08069
G1 X50.766 Y66.291 E53.08634
G1 X50.818 Y66.39 E53.09192
G1 X50.89 Y66.477 E53.09755
G1 X50.977 Y66.549 E53.10318
G1 X51.076 Y66.601 E53.10876
G1 X51.184 Y66.635 E53.11441
G1 X51.297 Y66.646 E53.12008
G1 X51.41 Y66.635 E53.12574
G1 X51.518 Y66.601 E53.13139
G1 X51.617 Y66.549 E53.13697
G1 X51.704 Y66.477 E53.1426
G1 X51.776 Y66.39 E53.14824
G1 X51.828 Y66.291 E53.15382
G1 X51.862 Y66.183 E53.15946
G1 X51.873 Y66.07 E53.16513
G1 X51.862 Y65.957 E53.17079
G1 X51.828 Y65.849 E53.17644
G1 X51.776 Y65.75 E53.18202
G1 X51.704 Y65.663 E53.18765
G1 X51.617 Y65.591 E53.19329
G1 X51.518 Y65.539 E53.19887
G1 X51.41 Y65.505 E53.20452
G1 X51.297 Y65.494 E53.21018
G1 X51.184 Y65.505 E53.21584
G0 F3600 X51.076 Y65.539
G0 X50.999 Y65.579
G0 X50.768 Y65.136
G0 X51.497 Y65.072
G0 X51.862 Y65.223
G0 X70.677 Y77.94
G0 X71.147 Y78.41
G1 F1770 X48.847 Y78.41 E54.3284
G1 X48.847 Y61.61 E55.16655
G1 X71.147 Y61.61 E56.2791
G1 X71.147 Y78.41 E57.11726
G0 F3600 X70.947 Y78.41
G0 X70.677 Y77.94
G0 X70.347 Y77.61
;TYPE:WALL-INNER
G1 F1770 X49.647 Y77.61 E58.14999
G1 X49.647 Y62.41 E58.90832
G1 X70.347 Y62.41 E59.94104
G1 X70.347 Y77.61 E60.69938
G0 F3600 X52.445 Y66.836
G1 F1770 X52.569 Y66.599 E60.71272
G1 X52.65 Y66.343 E60.72612
G1 X52.677 Y66.07 E60.7398
G1 X52.65 Y65.797 E60.75349
G1 X52.569 Y65.541 E60.76688
G1 X52.445 Y65.304 E60.78023
G1 X52.272 Y65.095 E60.79377
G1 X52.063 Y64.922 E60.8073
G1 X51.826 Y64.798 E60.82065
G1 X51.57 Y64.717 E60.83404
G1 X51.297 Y64.69 E60.84773
G1 X51.024 Y64.717 E60.86141
G1 X50.768 Y64.798 E60.87481
G1 X50.531 Y64.922 E60.88815
G1 X50.322 Y65.095 E60.90169
G1 X50.149 Y65.304 E60.91523
G1 X50.025 Y65.541 E60.92857
G1 X49.944 Y65.797 E60.94197
G1 X49.917 Y66.07 E60.95565
G1 X49.944 Y66.343 E60.96934
G1 X50.025 Y66.599 E60.98274
G1 X50.149 Y66.836 E60.99608
G1 X50.322 Y67.045 E61.00962
G1 X50.531 Y67.218 E61.02315
G1 X50.768 Y67.342 E61.0365
G1 X51.024 Y67.423 E61.04989
G1 X51.297 Y67.45 E61.06358
G1 X51.57 Y67.423 E61.07727
G1 X51.826 Y67.342 E61.09066
G1 X52.063 Y67.218 E61.10401
G1 X52.272 Y67.045 E61.11754
G1 X52.445 Y66.836 E61.13108
G0 F3600 X50.275 Y77.428
;TYPE:SKIN
G1 F1770 X49.826 Y76.979 E61.16276
G0 F3600 X49.826 Y76.414
G1 F1770 X50.841 Y77.428 E61.23434
G1 X50.911 Y77.498
G0 F3600 X51.407 Y77.428
G1 F1770 X49.826 Y75.848 E61.34585
G1 X49.756 Y75.778
G0 F3600 X49.826 Y75.282
G1 F1770 X51.973 Y77.428 E61.4973
G1 X52.043 Y77.498
G0 F3600 X52.538 Y77.428
G1 F1770 X49.826 Y74.717 E61.68861
G1 X49.756 Y74.647
G0 F3600 X49.826 Y74.151
G1 F1770 X53.104 Y77.428 E61.91985
G1 X53.174 Y77.498
G0 F3600 X53.67 Y77.428
G1 F1770 X49.826 Y73.585 E62.19103
G1 X49.756 Y73.515
G0 F3600 X49.826 Y73.02
G1 F1770 X54.235 Y77.428 E62.50207
G1 X54.305 Y77.498
G0 F3600 X54.801 Y77.428
G1 F1770 X49.826 Y72.454 E62.85305
G1 X49.756 Y72.384
G0 F3600 X49.826 Y71.888
G1 F1770 X55.367 Y77.428 E63.24397
G1 X55.437 Y77.498
G0 F3600 X55.932 Y77.428
G1 F1770 X49.826 Y71.323 E63.67474
G1 X49.756 Y71.253
G0 F3600 X49.826 Y70.757
G1 F1770 X56.498 Y77.428 E64.14545
G1 X56.568 Y77.498
G0 F3600 X57.064 Y77.428
G1 F1770 X49.826 Y70.191 E64.6561
G1 X49.756 Y70.121
G0 F3600 X49.826 Y69.625
G1 F1770 X57.629 Y77.428 E65.20664
G1 X57.699 Y77.498
G0 F3600 X58.195 Y77.428
G1 F1770 X49.826 Y69.06 E65.79708
G1 X49.756 Y68.99
G0 F3600 X49.826 Y68.494
G1 F1770 X58.761 Y77.428 E66.42746
G1 X58.831 Y77.498
G0 F3600 X59.326 Y77.428
G1 F1770 X49.826 Y67.928 E67.09774
G1 X49.756 Y67.858
G0 F3600 X49.826 Y67.363
G1 F1770 X59.892 Y77.428 E67.80791
G1 X59.962 Y77.498
G0 F3600 X60.458 Y77.428
G1 F1770 X50.234 Y67.204 E68.52927
G1 X50.164 Y67.134
G0 F3600 X50.16 Y67.13
G1 F1770 X49.826 Y66.797 E68.5528
G0 F3600 X49.975 Y65.248
G0 X49.9 Y65.174
G1 F1770 X50.027 Y64.735 E68.57224
G0 F3600 X49.826 Y63.969
G1 F1770 X50.56 Y64.703 E68.62402
G1 X50.63 Y64.773
G0 F3600 X50.968 Y64.544
G1 F1770 X49.826 Y63.403 E68.70456
G1 X49.756 Y63.333
G0 F3600 X49.826 Y62.837
G1 F1770 X51.519 Y64.53 E68.82401
G1 X51.589 Y64.6
G0 F3600 X52.835 Y65.845
G1 F1770 X64.418 Y77.428 E69.64126
G1 X64.488 Y77.498
G0 F3600 X64.983 Y77.428
G1 F1770 X50.144 Y62.589 E70.68823
G1 X50.074 Y62.519
G0 F3600 X50.71 Y62.589
G1 F1770 X65.549 Y77.428 E71.7352
G1 X65.619 Y77.498
G0 F3600 X66.115 Y77.428
G1 F1770 X51.275 Y62.589 E72.78221
G1 X51.205 Y62.519
G0 F3600 X51.841 Y62.589
G1 F1770 X66.68 Y77.428 E73.82918
G1 X66.75 Y77.498
G0 F3600 X67.246 Y77.428
G1 F1770 X52.407 Y62.589 E74.87615
G1 X52.337 Y62.519
G0 F3600 X52.972 Y62.589
G1 F1770 X67.812 Y77.428 E75.92316
G1 X67.882 Y77.498
G0 F3600 X68.377 Y77.428
G1 F1770 X53.538 Y62.589 E76.97013
G1 X53.468 Y62.519
G0 F3600 X54.104 Y62.589
G1 F1770 X68.943 Y77.428 E78.0171
G1 X69.013 Y77.498
G0 F3600 X69.509 Y77.428
G1 F1770 X54.669 Y62.589 E79.06411
G1 X54.599 Y62.519
G0 F3600 X55.235 Y62.589
G1 F1770 X70.074 Y77.428 E80.11108
G1 X70.144 Y77.498
G0 F3600 X70.166 Y76.955
G1 F1770 X55.801 Y62.589 E81.12464
G1 X55.731 Y62.519
G0 F3600 X56.367 Y62.589
G1 F1770 X70.166 Y76.389 E82.09827
G1 X70.236 Y76.459
G0 F3600 X70.166 Y75.823
G1 F1770 X56.932 Y62.589 E83.032
G1 X56.862 Y62.519
G0 F3600 X57.498 Y62.589
G1 F1770 X70.166 Y75.258 E83.92583
G1 X70.236 Y75.328
G0 F3600 X70.166 Y74.692
G1 F1770 X58.064 Y62.589 E84.77973
G1 X57.994 Y62.519
G0 F3600 X58.629 Y62.589
G1 F1770 X70.166 Y74.126 E85.59373
G1 X70.236 Y74.196
G0 F3600 X70.166 Y73.561
G1 F1770 X59.195 Y62.589 E86.36783
G1 X59.125 Y62.519
G0 F3600 X59.761 Y62.589
G1 F1770 X70.166 Y72.995 E87.10199
G1 X70.236 Y73.065
G0 F3600 X70.166 Y72.429
G1 F1770 X60.327 Y62.59 E87.79619
G1 X60.257 Y62.52
G0 F3600 X60.893 Y62.59
G1 F1770 X70.166 Y71.863 E88.45045
G1 X70.236 Y71.933
G0 F3600 X70.166 Y71.298
G1 F1770 X61.458 Y62.59 E89.06484
G1 X61.388 Y62.52
G0 F3600 X62.024 Y62.59
G1 F1770 X70.166 Y70.732 E89.6393
G1 X70.236 Y70.802
G0 F3600 X70.166 Y70.166
G1 F1770 X62.59 Y62.59 E90.17383
G1 X62.52 Y62.52
G0 F3600 X63.155 Y62.59
G1 F1770 X70.166 Y69.601 E90.6685
G1 X70.236 Y69.671
G0 F3600 X70.166 Y69.035
G1 F1770 X63.721 Y62.59 E91.12323
G1 X63.651 Y62.52
G0 F3600 X64.287 Y62.59
G1 F1770 X70.166 Y68.469 E91.53802
G1 X70.236 Y68.539
G0 F3600 X70.166 Y67.904
G1 F1770 X64.853 Y62.59 E91.91292
G1 X64.783 Y62.52
G0 F3600 X65.418 Y62.59
G1 F1770 X70.166 Y67.338 E92.24791
G1 X70.236 Y67.408
G0 F3600 X70.166 Y66.772
G1 F1770 X65.984 Y62.59 E92.54298
G1 X65.914 Y62.52
G0 F3600 X66.55 Y62.59
G1 F1770 X70.166 Y66.207 E92.79814
G1 X70.236 Y66.277
G0 F3600 X70.166 Y65.641
G1 F1770 X67.115 Y62.59 E93.0134
G1 X67.045 Y62.52
G0 F3600 X67.681 Y62.59
G1 F1770 X70.166 Y65.075 E93.18873
G1 X70.236 Y65.145
G0 F3600 X70.166 Y64.51
G1 F1770 X68.247 Y62.59 E93.32417
G1 X68.177 Y62.52
G0 F3600 X68.812 Y62.59
G1 F1770 X70.166 Y63.944 E93.4197
G1 X70.236 Y64.014
G0 F3600 X70.166 Y63.378
G1 F1770 X69.378 Y62.59 E93.4753
G1 X69.308 Y62.52
G0 F3600 X69.944 Y62.59
G1 F1770 X70.166 Y62.813 E93.49099
G0 F3600 X63.852 Y77.428
G1 F1770 X52.82 Y66.397 E94.26933
G1 X52.75 Y66.327
G0 F3600 X52.662 Y66.804
G1 F1770 X63.286 Y77.428 E95.01891
G1 X63.356 Y77.498
G0 F3600 X62.721 Y77.428
G1 F1770 X52.428 Y67.136 E95.7451
G1 X52.358 Y67.066
G0 F3600 X52.118 Y67.391
G1 F1770 X62.155 Y77.428 E96.45326
G1 X62.225 Y77.498
G0 F3600 X61.589 Y77.428
G1 F1770 X51.723 Y67.562 E97.14936
G1 X51.653 Y67.492
G0 F3600 X51.217 Y67.622
G1 F1770 X61.024 Y77.428 E97.84126
G1 X61.094 Y77.498
G1 F1500 E91.34126
G0 F3600 X52.016 Y65.351
G0 X49.317 Y62.03
G0 X49.317 Y60.745
G0 X49.317 Y59.295
G0 X49.317 Y58.01
G0 X49.317 Y42.06
G0 X49.247 Y41.99
;TIME_ELAPSED:73.589042
;LAYER:1
M140 S60
M106 S255
G0 F5400 X49.247 Y41.99 Z0.4
;TYPE:WALL-INNER
G1 F1500 E97.84126
G1 F2655 X70.55 Y41.99 E98.19553
G1 X70.75 Y41.99 E98.19886
G1 X70.75 Y42.19 E98.20101
G1 X70.748 Y58.03 E98.46443
G1 X49.247 Y58.03 E98.822
G1 X49.247 Y41.99 E99.08874
G0 F5400 X49.317 Y42.06
G0 X70.65 Y42.389
G0 X71.153 Y42.39
;TYPE:WALL-OUTER
G1 F1770 X71.148 Y58.43 E99.35549
G1 X48.847 Y58.43 E99.72636
G1 X48.847 Y41.59 E100.00641
G1 X71.148 Y41.59 E100.37727
G1 X71.153 Y42.39 E100.39058
G0 F5400 X71.153 Y42.59
G0 X70.65 Y42.589
G0 X70.35 Y42.39
;TYPE:WALL-INNER
G1 F2655 X70.348 Y57.63 E100.64402
G1 X49.647 Y57.63 E100.98828
G1 X49.647 Y42.39 E101.24172
G1 X70.35 Y42.39 E101.58601
G0 F5400 X70.166 Y57.112
;TYPE:SKIN
G1 F1770 X69.828 Y57.45 E101.59396
G0 F5400 X69.263 Y57.45
G1 F1770 X70.166 Y56.546 E101.61521
G1 X70.236 Y56.476
G0 F5400 X70.166 Y55.98
G1 F1770 X68.697 Y57.45 E101.64977
G1 X68.627 Y57.52
G0 F5400 X68.131 Y57.45
G1 F1770 X70.166 Y55.415 E101.69763
G1 X70.236 Y55.345
G0 F5400 X70.166 Y54.849
G1 F1770 X67.566 Y57.45 E101.75879
G1 X67.496 Y57.52
G0 F5400 X67 Y57.45
G1 F1770 X70.166 Y54.283 E101.83326
G1 X70.236 Y54.213
G0 F5400 X70.167 Y53.717
