;FLAVOR:Marlin
;TIME:1468
;Filament used: 0.667081m
;Layer height: 0.1
;Generated with Cura_SteamEngine 3.0.3
M190 S60
M104 S210
M109 S210
M82 ; absolute extrusion mode
G28 ;Home all axes
G1 Z0.2 F1200 ;Raise nozzle
G92 E0 ;reset extrusion distance
G1 X100 Y0 E12 F600 ;purge nozzle
G92 E0 ;reset extrusion distance
;LAYER_COUNT:87
;LAYER:0
M107
G0 F3600 X48.679 Y41.059 Z0.3
;TYPE:WALL-INNER
G1 F1770 X71.314 Y41.059 E1.12926
G1 X71.314 Y57.961 E1.97251
G1 X48.679 Y57.961 E3.10177
G1 X48.679 Y41.059 E3.94502
G0 F3600 X48.749 Y41.129
G0 X71.244 Y57.891
G0 X71.714 Y58.361
;TYPE:WALL-OUTER
G1 F1770 X48.279 Y58.361 E5.11419
G1 X48.279 Y40.659 E5.99735
G1 X71.714 Y40.659 E7.16653
G1 X71.714 Y58.361 E8.04968
G0 F3600 X71.514 Y58.361
G0 X71.244 Y57.891
G0 X70.914 Y57.561
;TYPE:WALL-INNER
G1 F1770 X49.079 Y57.561 E9.13904
G1 X49.079 Y41.459 E9.94237
G1 X70.914 Y41.459 E11.03172
G1 X70.914 Y57.561 E11.83505
G0 F3600 X70.733 Y41.883
;TYPE:SKIN
G1 F1770 X70.488 Y41.638 E11.85234
G0 F3600 X69.922 Y41.638
G1 F1770 X70.733 Y42.449 E11.90956
G1 X70.803 Y42.519
G0 F3600 X70.733 Y43.014
G1 F1770 X69.357 Y41.638 E12.00664
G1 X69.287 Y41.568
G0 F3600 X68.791 Y41.638
G1 F1770 X70.733 Y43.58 E12.14366
G1 X70.803 Y43.65
G0 F3600 X70.733 Y44.146
G1 F1770 X68.225 Y41.638 E12.32062
G1 X68.155 Y41.568
G0 F3600 X67.66 Y41.638
G1 F1770 X70.733 Y44.711 E12.53743
G1 X70.803 Y44.781
G0 F3600 X70.733 Y45.277
G1 F1770 X67.094 Y41.638 E12.79418
G1 X67.024 Y41.568
G0 F3600 X66.528 Y41.638
G1 F1770 X70.733 Y45.843 E13.09087
G1 X70.803 Y45.913
G0 F3600 X70.733 Y46.408
G1 F1770 X65.963 Y41.638 E13.42742
G1 X65.893 Y41.568
G0 F3600 X65.397 Y41.638
G1 F1770 X70.733 Y46.974 E13.8039
G1 X70.803 Y47.044
G0 F3600 X70.733 Y47.54
G1 F1770 X64.831 Y41.638 E14.22032
G1 X64.761 Y41.568
G0 F3600 X64.266 Y41.638
G1 F1770 X70.733 Y48.105 E14.6766
G1 X70.803 Y48.175
G0 F3600 X70.733 Y48.671
G1 F1770 X63.7 Y41.638 E15.17282
G1 X63.63 Y41.568
G0 F3600 X63.134 Y41.638
G1 F1770 X70.733 Y49.237 E15.70897
G1 X70.803 Y49.307
G0 F3600 X70.733 Y49.802
G1 F1770 X62.569 Y41.638 E16.28498
G1 X62.499 Y41.568
G0 F3600 X62.003 Y41.638
G1 F1770 X70.733 Y50.368 E16.90093
G1 X70.803 Y50.438
G0 F3600 X70.733 Y50.934
G1 F1770 X61.437 Y41.638 E17.55681
G1 X61.367 Y41.568
G0 F3600 X60.871 Y41.638
G1 F1770 X70.733 Y51.5 E18.25263
G1 X70.803 Y51.57
G0 F3600 X70.733 Y52.065
G1 F1770 X60.306 Y41.638 E18.98831
G1 X60.236 Y41.568
G0 F3600 X59.74 Y41.638
G1 F1770 X70.733 Y52.631 E19.76393
G1 X70.803 Y52.701
G0 F3600 X70.733 Y53.197
G1 F1770 X59.174 Y41.638 E20.57948
G1 X59.104 Y41.568
G0 F3600 X58.609 Y41.638
G1 F1770 X70.733 Y53.762 E21.43489
G1 X70.803 Y53.832
G0 F3600 X70.733 Y54.328
G1 F1770 X58.043 Y41.638 E22.33024
G1 X57.973 Y41.568
G0 F3600 X57.477 Y41.638
G1 F1770 X70.733 Y54.894 E23.26552
G1 X70.803 Y54.964
G0 F3600 X70.733 Y55.459
G1 F1770 X56.912 Y41.638 E24.24067
G1 X56.842 Y41.568
G0 F3600 X56.346 Y41.638
G1 F1770 X70.733 Y56.025 E25.25575
G1 X70.803 Y56.095
G0 F3600 X70.733 Y56.591
G1 F1770 X55.78 Y41.638 E26.31076
G1 X55.71 Y41.568
G0 F3600 X55.215 Y41.638
G1 F1770 X70.733 Y57.156 E27.40564
G1 X70.803 Y57.226
G0 F3600 X70.391 Y57.38
G1 F1770 X54.649 Y41.638 E28.51633
G1 X54.579 Y41.568
G0 F3600 X54.083 Y41.638
G1 F1770 X69.825 Y57.38 E29.62701
G1 X69.895 Y57.45
G0 F3600 X69.259 Y57.38
G1 F1770 X53.518 Y41.638 E30.73766
G1 X53.448 Y41.568
G0 F3600 X52.952 Y41.638
G1 F1770 X68.694 Y57.38 E31.84834
G1 X68.764 Y57.45
G0 F3600 X68.128 Y57.38
G1 F1770 X52.386 Y41.638 E32.95902
G1 X52.316 Y41.568
G0 F3600 X51.821 Y41.638
G1 F1770 X67.562 Y57.38 E34.06967
G1 X67.632 Y57.45
G0 F3600 X66.996 Y57.38
G1 F1770 X51.255 Y41.638 E35.18032
G1 X51.185 Y41.568
G0 F3600 X50.689 Y41.638
G1 F1770 X66.431 Y57.38 E36.291
G1 X66.501 Y57.45
G0 F3600 X65.865 Y57.38
G1 F1770 X50.123 Y41.638 E37.40169
G1 X50.053 Y41.568
G0 F3600 X49.558 Y41.638
G1 F1770 X65.299 Y57.38 E38.51233
G1 X65.369 Y57.45
G0 F3600 X64.734 Y57.38
G1 F1770 X49.258 Y41.904 E39.60425
G1 X49.188 Y41.834
G0 F3600 X49.258 Y42.47
G1 F1770 X64.168 Y57.38 E40.65623
G1 X64.238 Y57.45
G0 F3600 X63.602 Y57.38
G1 F1770 X49.258 Y43.035 E41.66831
G1 X49.188 Y42.965
G0 F3600 X49.258 Y43.601
G1 F1770 X63.037 Y57.38 E42.64049
G1 X63.107 Y57.45
G0 F3600 X62.471 Y57.38
G1 F1770 X49.258 Y44.167 E43.57274
G1 X49.188 Y44.097
G0 F3600 X49.258 Y44.732
G1 F1770 X61.905 Y57.38 E44.46509
G1 X61.975 Y57.45
G0 F3600 X61.34 Y57.38
G1 F1770 X49.258 Y45.298 E45.31754
G1 X49.188 Y45.228
G0 F3600 X49.258 Y45.864
G1 F1770 X60.774 Y57.38 E46.13006
G1 X60.844 Y57.45
G0 F3600 X60.208 Y57.38
G1 F1770 X49.258 Y46.43 E46.90264
G1 X49.188 Y46.36
G0 F3600 X49.258 Y46.995
G1 F1770 X59.643 Y57.38 E47.63536
G1 X59.713 Y57.45
G0 F3600 X59.077 Y57.38
G1 F1770 X49.258 Y47.561 E48.32814
G1 X49.188 Y47.491
G0 F3600 X49.258 Y48.127
G1 F1770 X58.511 Y57.38 E48.98099
G1 X58.581 Y57.45
G0 F3600 X57.945 Y57.38
G1 F1770 X49.258 Y48.692 E49.59394
G1 X49.188 Y48.622
G0 F3600 X49.258 Y49.258
G1 F1770 X57.38 Y57.38 E50.16699
G1 X57.45 Y57.45
G0 F3600 X56.814 Y57.38
G1 F1770 X49.258 Y49.824 E50.70011
G1 X49.188 Y49.754
G0 F3600 X49.258 Y50.389
G1 F1770 X56.248 Y57.38 E51.19333
G1 X56.318 Y57.45
G0 F3600 X55.683 Y57.38
G1 F1770 X49.258 Y50.955 E51.64664
G1 X49.188 Y50.885
G0 F3600 X49.258 Y51.521
G1 F1770 X55.117 Y57.38 E52.06003
G1 X55.187 Y57.45
G0 F3600 X54.551 Y57.38
G1 F1770 X49.258 Y52.086 E52.43351
G1 X49.188 Y52.016
G0 F3600 X49.258 Y52.652
G1 F1770 X53.986 Y57.38 E52.7671
G1 X54.056 Y57.45
G0 F3600 X53.42 Y57.38
G1 F1770 X49.258 Y53.218 E53.06075
G1 X49.188 Y53.148
G0 F3600 X49.258 Y53.783
G1 F1770 X52.854 Y57.38 E53.3145
G1 X52.924 Y57.45
G0 F3600 X52.289 Y57.38
G1 F1770 X49.258 Y54.349 E53.52836
G1 X49.188 Y54.279
G0 F3600 X49.258 Y54.915
G1 F1770 X51.723 Y57.38 E53.70228
G1 X51.793 Y57.45
G0 F3600 X51.157 Y57.38
G1 F1770 X49.258 Y55.481 E53.83626
G1 X49.188 Y55.411
G0 F3600 X49.258 Y56.046
G1 F1770 X50.592 Y57.38 E53.93038
G1 X50.662 Y57.45
G0 F3600 X50.026 Y57.38
G1 F1770 X49.258 Y56.612 E53.98457
G1 X49.188 Y56.542
G0 F3600 X49.258 Y57.178
G1 F1770 X49.46 Y57.38 E53.99882
G1 F1500 E47.49882
G0 F3600 X48.879 Y57.941
G0 X48.879 Y59.226
G0 X48.878 Y60.815
G0 X48.878 Y62.1
G0 X48.879 Y62.18
G0 X48.879 Y62.08
;TYPE:WALL-INNER
G1 F1500 E53.99882
G1 F1770 X71.314 Y62.081 E55.11811
G1 X71.314 Y78.94 E55.95921
G1 X48.679 Y78.94 E57.08847
G1 X48.679 Y62.28 E57.91964
G1 X48.679 Y62.08 E57.92962
G1 X48.879 Y62.08 E57.93608
G0 F3600 X48.879 Y62.18
G0 X50.611 Y65.105
G0 X50.63 Y65.203
G1 F1770 X50.405 Y65.271 E57.94781
G1 X50.2 Y65.381 E57.95941
G1 X50.018 Y65.529 E57.97112
G1 X49.871 Y65.709 E57.98271
G1 X49.758 Y65.917 E57.99452
G1 X49.692 Y66.141 E58.00617
G1 X49.668 Y66.373 E58.01781
G1 X49.692 Y66.606 E58.02949
G1 X49.758 Y66.83 E58.04114
G1 X49.871 Y67.038 E58.05295
G1 X50.018 Y67.218 E58.06455
G1 X50.2 Y67.366 E58.07625
G1 X50.405 Y67.476 E58.08786
G1 X50.63 Y67.544 E58.09959
G1 X50.862 Y67.567 E58.11122
G1 X51.094 Y67.544 E58.12285
G1 X51.318 Y67.477 E58.13451
G1 X51.526 Y67.366 E58.14627
G1 X51.704 Y67.218 E58.15782
G1 X51.853 Y67.04 E58.1694
G1 X51.966 Y66.829 E58.18135
G1 X52.032 Y66.603 E58.19309
G1 X52.055 Y66.374 E58.20457
G1 X52.032 Y66.144 E58.21611
G1 X51.966 Y65.918 E58.22785
G1 X51.853 Y65.707 E58.23979
G1 X51.704 Y65.529 E58.25138
G1 X51.526 Y65.381 E58.26292
G1 X51.318 Y65.27 E58.27469
G1 X51.094 Y65.203 E58.28635
G1 X50.862 Y65.18 E58.29798
G1 X50.63 Y65.203 E58.30961
G0 F3600 X50.708 Y65.597
;TYPE:WALL-OUTER
G1 F1770 X50.559 Y65.642 E58.31738
G1 X50.423 Y65.715 E58.32508
G1 X50.302 Y65.814 E58.33288
G1 X50.204 Y65.933 E58.34057
G1 X50.13 Y66.07 E58.34834
G1 X50.086 Y66.219 E58.35609
G1 X50.07 Y66.373 E58.36381
G1 X50.086 Y66.528 E58.37159
G1 X50.13 Y66.677 E58.37934
G1 X50.204 Y66.814 E58.38711
G1 X50.302 Y66.933 E58.3948
G1 X50.423 Y67.032 E58.4026
G1 X50.559 Y67.105 E58.4103
G1 X50.708 Y67.15 E58.41806
G1 X50.862 Y67.165 E58.42578
G1 X51.016 Y67.15 E58.4335
G1 X51.165 Y67.105 E58.44127
G1 X51.302 Y67.032 E58.44901
G1 X51.421 Y66.933 E58.45674
G1 X51.52 Y66.815 E58.46442
G1 X51.594 Y66.677 E58.47223
G1 X51.638 Y66.527 E58.48003
G1 X51.653 Y66.374 E58.4877
G1 X51.638 Y66.22 E58.49542
G1 X51.594 Y66.07 E58.50322
G1 X51.52 Y65.932 E58.51103
G1 X51.421 Y65.814 E58.51872
G1 X51.302 Y65.715 E58.52644
G1 X51.165 Y65.642 E58.53418
G1 X51.016 Y65.597 E58.54195
G1 X50.862 Y65.582 E58.54967
G1 X50.708 Y65.597 E58.55739
G0 F3600 X50.559 Y65.642
G0 X50.52 Y65.663
G0 X50.284 Y65.222
G0 X48.749 Y62.15
G0 X48.479 Y61.68
G1 F1770 X71.714 Y61.681 E59.71659
G1 X71.714 Y79.34 E60.5976
G1 X48.279 Y79.34 E61.76678
G1 X48.279 Y61.88 E62.63786
G1 X48.279 Y61.68 E62.64784
G1 X48.479 Y61.68 E62.6543
G0 F3600 X48.679 Y61.68
G0 X48.749 Y62.15
G0 X49.079 Y62.48
;TYPE:WALL-INNER
G1 F1770 X70.914 Y62.481 E63.74365
G1 X70.914 Y78.54 E64.54484
G1 X49.079 Y78.54 E65.63419
G1 X49.079 Y62.48 E66.43543
G0 F3600 X50.251 Y64.899
G1 F1770 X49.977 Y65.047 E66.45096
G1 X49.734 Y65.245 E66.4666
G1 X49.537 Y65.485 E66.48209
G1 X49.386 Y65.763 E66.49787
G1 X49.298 Y66.063 E66.51347
G1 X49.266 Y66.373 E66.52902
G1 X49.298 Y66.684 E66.54462
G1 X49.386 Y66.984 E66.56022
G1 X49.537 Y67.262 E66.576
G1 X49.734 Y67.502 E66.59149
G1 X49.977 Y67.7 E66.60713
G1 X50.251 Y67.848 E66.62267
G1 X50.552 Y67.938 E66.63834
G1 X50.862 Y67.969 E66.65388
G1 X51.172 Y67.938 E66.66943
G1 X51.47 Y67.849 E66.68494
G1 X51.75 Y67.7 E66.70077
G1 X51.988 Y67.502 E66.71621
G1 X52.187 Y67.266 E66.73161
G1 X52.338 Y66.981 E66.7477
G1 X52.426 Y66.679 E66.7634
G1 X52.457 Y66.374 E66.77869
G1 X52.426 Y66.068 E66.79404
G1 X52.338 Y65.766 E66.80973
G1 X52.187 Y65.481 E66.82582
G1 X51.988 Y65.245 E66.84122
G1 X51.75 Y65.047 E66.85667
G1 X51.47 Y64.898 E66.87249
G1 X51.172 Y64.809 E66.88801
G1 X50.862 Y64.778 E66.90355
G1 X50.552 Y64.809 E66.91909
G1 X50.251 Y64.899 E66.93477
G0 F3600 X49.722 Y65.902
G0 X49.628 Y66.373
G0 X49.509 Y78.359
;TYPE:SKIN
G1 F1770 X49.258 Y78.108 E66.95248
G0 F3600 X49.258 Y77.542
G1 F1770 X50.075 Y78.359 E67.01012
G1 X50.145 Y78.429
G0 F3600 X50.64 Y78.359
G1 F1770 X49.258 Y76.977 E67.10763
G1 X49.188 Y76.907
G0 F3600 X49.258 Y76.411
G1 F1770 X51.206 Y78.359 E67.24507
G1 X51.276 Y78.429
G0 F3600 X51.772 Y78.359
G1 F1770 X49.258 Y75.845 E67.42245
G1 X49.188 Y75.775
G0 F3600 X49.258 Y75.28
G1 F1770 X52.337 Y78.359 E67.63969
G1 X52.407 Y78.429
G0 F3600 X52.903 Y78.359
G1 F1770 X49.258 Y74.714 E67.89686
G1 X49.188 Y74.644
G0 F3600 X49.258 Y74.148
G1 F1770 X53.469 Y78.359 E68.19397
G1 X53.539 Y78.429
G0 F3600 X54.034 Y78.359
G1 F1770 X49.258 Y73.582 E68.53098
G1 X49.188 Y73.512
G0 F3600 X49.258 Y73.017
G1 F1770 X54.6 Y78.359 E68.90788
G1 X54.67 Y78.429
G0 F3600 X55.166 Y78.359
G1 F1770 X49.258 Y72.451 E69.32473
G1 X49.188 Y72.381
G0 F3600 X49.258 Y71.885
G1 F1770 X55.732 Y78.359 E69.7815
G1 X55.802 Y78.429
G0 F3600 X56.297 Y78.359
G1 F1770 X49.258 Y71.32 E70.27814
G1 X49.188 Y71.25
G0 F3600 X49.258 Y70.754
G1 F1770 X56.863 Y78.359 E70.81472
G1 X56.933 Y78.429
G0 F3600 X57.429 Y78.359
G1 F1770 X49.258 Y70.188 E71.39122
G1 X49.188 Y70.118
G0 F3600 X49.258 Y69.623
G1 F1770 X57.994 Y78.359 E72.0076
G1 X58.064 Y78.429
G0 F3600 X58.56 Y78.359
G1 F1770 X49.258 Y69.057 E72.6639
G1 X49.188 Y68.987
G0 F3600 X49.258 Y68.491
G1 F1770 X59.126 Y78.359 E73.36014
G1 X59.196 Y78.429
G0 F3600 X59.691 Y78.359
G1 F1770 X49.258 Y67.926 E74.09625
G1 X49.188 Y67.856
G0 F3600 X49.258 Y67.36
G1 F1770 X60.257 Y78.359 E74.87229
G1 X60.327 Y78.429
G0 F3600 X60.823 Y78.359
G1 F1770 X50.585 Y68.121 E75.59463
G1 X50.515 Y68.051
G0 F3600 X51.15 Y68.121
G1 F1770 X61.388 Y78.359 E76.31698
G1 X61.458 Y78.429
G0 F3600 X61.954 Y78.359
G1 F1770 X51.586 Y67.991 E77.0485
G1 X51.516 Y67.921
G0 F3600 X51.938 Y67.777
G1 F1770 X62.52 Y78.359 E77.79511
G1 X62.59 Y78.429
G0 F3600 X63.085 Y78.359
G1 F1770 X52.225 Y67.498 E78.56138
G1 X52.155 Y67.428
G0 F3600 X52.448 Y67.156
G1 F1770 X63.651 Y78.359 E79.35181
G1 X63.721 Y78.429
G0 F3600 X64.217 Y78.359
G1 F1770 X52.595 Y66.737 E80.17181
G1 X52.525 Y66.667
G0 F3600 X52.619 Y66.195
G1 F1770 X64.783 Y78.359 E81.03004
G1 X64.853 Y78.429
G0 F3600 X65.348 Y78.359
G1 F1770 X52.169 Y65.18 E81.95989
G1 X52.099 Y65.11
G0 F3600 X52.055 Y65.065
G1 F1770 X49.648 Y62.659 E82.12968
G1 X49.578 Y62.589
G0 F3600 X49.259 Y62.835
G1 F1770 X51.037 Y64.614 E82.25517
G1 X51.107 Y64.684
G0 F3600 X50.494 Y64.636
G1 F1770 X49.259 Y63.401 E82.3423
G1 X49.189 Y63.331
G0 F3600 X49.259 Y63.967
G1 F1770 X50.078 Y64.786 E82.40009
G1 X50.148 Y64.856
G0 F3600 X49.497 Y64.77
G1 F1770 X49.358 Y65.197 E82.42395
G0 F3600 X49.458 Y65.297
G0 X50.214 Y62.659
G1 F1770 X65.914 Y78.359 E83.53167
G1 X65.984 Y78.429
G0 F3600 X66.48 Y78.359
G1 F1770 X50.78 Y62.659 E84.63939
G1 X50.71 Y62.589
G0 F3600 X51.345 Y62.659
G1 F1770 X67.045 Y78.359 E85.74711
G1 X67.115 Y78.429
G0 F3600 X67.611 Y78.359
G1 F1770 X51.911 Y62.659 E86.85483
G1 X51.841 Y62.589
G0 F3600 X52.477 Y62.659
G1 F1770 X68.177 Y78.359 E87.96255
G1 X68.247 Y78.429
G0 F3600 X68.742 Y78.359
G1 F1770 X53.042 Y62.659 E89.07027
G1 X52.972 Y62.589
G0 F3600 X53.608 Y62.659
G1 F1770 X69.308 Y78.359 E90.17799
G1 X69.378 Y78.429
G0 F3600 X69.874 Y78.359
G1 F1770 X54.174 Y62.659 E91.28571
G1 X54.104 Y62.589
G0 F3600 X54.739 Y62.659
G1 F1770 X70.439 Y78.359 E92.39343
G1 X70.509 Y78.429
G0 F3600 X70.734 Y78.087
G1 F1770 X55.305 Y62.659 E93.48199
G1 X55.235 Y62.589
G0 F3600 X55.871 Y62.659
G1 F1770 X70.734 Y77.522 E94.53066
G1 X70.804 Y77.592
G0 F3600 X70.734 Y76.956
G1 F1770 X56.437 Y62.66 E95.53935
G1 X56.367 Y62.59
G0 F3600 X57.003 Y62.66
G1 F1770 X70.734 Y76.39 E96.50811
G1 X70.804 Y76.46
G0 F3600 X70.734 Y75.825
G1 F1770 X57.569 Y62.66 E97.43697
G1 X57.499 Y62.59
G0 F3600 X58.134 Y62.66
G1 F1770 X70.734 Y75.259 E98.32594
G1 X70.804 Y75.329
G0 F3600 X70.734 Y74.693
G1 F1770 X58.7 Y62.66 E99.17496
G1 X58.63 Y62.59
G0 F3600 X59.266 Y62.66
G1 F1770 X70.734 Y74.128 E99.98409
G1 X70.804 Y74.198
G0 F3600 X70.734 Y73.562
G1 F1770 X59.831 Y62.66 E100.75332
G1 X59.761 Y62.59
G0 F3600 X60.397 Y62.66
G1 F1770 X70.734 Y72.996 E101.48262
G1 X70.804 Y73.066
G0 F3600 X70.734 Y72.431
G1 F1770 X60.963 Y62.66 E102.17202
G1 X60.893 Y62.59
G0 F3600 X61.528 Y62.66
G1 F1770 X70.734 Y71.865 E102.82151
G1 X70.804 Y71.935
G0 F3600 X70.734 Y71.299
G1 F1770 X62.094 Y62.66 E103.43108
G1 X62.024 Y62.59
G0 F3600 X62.66 Y62.66
G1 F1770 X70.734 Y70.734 E104.00074
G1 X70.804 Y70.804
G0 F3600 X70.734 Y70.168
G1 F1770 X63.225 Y62.66 E104.53051
G1 X63.155 Y62.59
G0 F3600 X63.792 Y62.66
G1 F1770 X70.734 Y69.602 E105.0203
G1 X70.804 Y69.672
G0 F3600 X70.734 Y69.036
G1 F1770 X64.358 Y62.66 E105.47016
G1 X64.288 Y62.59
G0 F3600 X64.923 Y62.66
G1 F1770 X70.734 Y68.471 E105.88016
G1 X70.804 Y68.541
G0 F3600 X70.734 Y67.905
G1 F1770 X65.489 Y62.66 E106.25022
G1 X65.419 Y62.59
G0 F3600 X66.055 Y62.66
G1 F1770 X70.734 Y67.339 E106.58035
G1 X70.804 Y67.409
G0 F3600 X70.734 Y66.774
G1 F1770 X66.62 Y62.66 E106.87062
G1 X66.55 Y62.59
G0 F3600 X67.186 Y62.66
G1 F1770 X70.734 Y66.208 E107.12095
G1 X70.804 Y66.278
G0 F3600 X70.734 Y65.642
G1 F1770 X67.752 Y62.66 E107.33135
G1 X67.682 Y62.59
G0 F3600 X68.317 Y62.66
G1 F1770 X70.734 Y65.077 E107.50188
G1 X70.804 Y65.147
G0 F3600 X70.734 Y64.511
G1 F1770 X68.883 Y62.66 E107.63248
G1 X68.813 Y62.59
G0 F3600 X69.449 Y62.66
G1 F1770 X70.734 Y63.945 E107.72314
G1 X70.804 Y64.015
G0 F3600 X70.734 Y63.38
G1 F1770 X70.014 Y62.66 E107.77394
G1 X69.944 Y62.59
G0 F3600 X70.58 Y62.66
G1 F1770 X70.734 Y62.814 E107.7848
G1 F1500 E101.2848
G0 F3600 X48.748 Y62.1
G0 X48.748 Y60.815
G0 X48.748 Y59.226
G0 X48.748 Y57.941
G0 X48.749 Y41.129
G0 X48.679 Y41.059
;TIME_ELAPSED:80.082633
;LAYER:1
M140 S60
M106 S255
G0 F5400 X48.679 Y41.059 Z0.4
;TYPE:WALL-INNER
G1 F1500 E107.7848
G1 F2655 X71.314 Y41.059 E108.16123
G1 X71.314 Y57.961 E108.44231
G1 X48.679 Y57.961 E108.81873
G1 X48.679 Y41.059 E109.09981
G0 F5400 X48.749 Y41.129
G0 X71.244 Y57.891
G0 X71.714 Y58.361
;TYPE:WALL-OUTER
G1 F1770 X48.279 Y58.361 E109.48954
G1 X48.279 Y40.659 E109.78392
G1 X71.714 Y40.659 E110.17365
G1 X71.714 Y58.361 E110.46803
G0 F5400 X71.514 Y58.361
G0 X71.244 Y57.891
G0 X70.914 Y57.561
;TYPE:WALL-INNER
G1 F2655 X49.079 Y57.561 E110.83115
